X:1
T:Si ben l'empia
T:Si ben l'empia
T:Orlande de Lassus
C:Orlande de Lassus
%%score [ 1 [ 2 3 ] 4 ]
L:1/8
Q:1/4=80
M:2/2
K:F
V:1 treble nm="Superius" snm="S"
V:2 treble-8 nm="Tenor 1" snm="T 1"
V:3 treble-8 nm="Tenor 2" snm="T 2"
V:4 bass nm="Bassus" snm="B"
V:1
 z8 | z8 | D4 E2 F2- | FF E2 F4 | F2 B3 B A2 | dd c2 A4 | A3 A D2 A2- | AA G4 ^F2 | z2 A2 A2 A2 | %9
w: ||Se ben l'em|_ pia mia for-|te, fa che con-|tra mia vo- glia,|fa che con- tra|_ mia vo- glia,|don- na col|
 B2 G2 A2 A2 | B2 A2 d4- | d4 ^c4 | z2 d3 d G2 | A2 B2 G4 | F6 F2 | G2 A2 B2 c2 | B2 A2 z F G2 | %17
w: cor- po da voi|lun- g'is- ti-|* a|non po- tra|se non mor-|te, men-|tre'ha- vro que- sta|spo- glia, men- tre'ha-|
 F2 B4 B2 | A4 D2 d2 | d2 =B2 B2 c2 | A2 A2 F2 DE | FGAB c2 A2- | AG G4 F2 | G8 | z8 | z2 A4 A2 | %26
w: vro que- sta|spo- glia, far|ch'el mio cor con|voi sem- pre non _|_ _ _ _ _ sti-||a,||et se|
 B3 B G4 | A4 D2 d2- | d2 c4 B2- | B2 A4 A2 | d4 G4 | c3 c A4 | d6 c2- | c2 B4 A2- | A2 G4 F2 | %35
w: li- ci- to|fi- a do-|* po si|_ cru- de|tem- pre|v'a- me- ra|l'al- m'e|_ sa- ra|_ con voi|
 E4 D4- | D8- | D8 |] %38
w: sem- pre.|_||
V:2
 z8 | z8 | z2 G4 A2 | B3 B A2 Bc | de f2 f4- | f4 z2 f2- | ff e2 g2 f2 | e4 d4 | ^f4 f2 f2 | %9
w: ||Se ben|l'em- pia mia for- *|* * * te,|_ fa|_ che con- tra mia|vo- glia,|don- na col|
 g2 e2 f4- | f2 f2 f2 f2 | d4 e4 | f3 f d2 B2 | f4 _e3 d | c4 d2 d2 | e2 f2 dd f2 | d2 z f2 BBB- | %17
w: cor- po da|_ voi lun- gi|sti- a,|non po- tra se|non mor- *|* te, men-|tre'ha- vro que- sta spo-|glia,- men- tre'ha- vro que-|
 Bf f2 g4 | z2 f4 d2- | d2 g2 g2 g2 | f3 e de f2 | z2 f3 e f2 | _e2 d2 d4 |"^b" =B2 B4 d2 | %24
w: * sta spo- glia,|far ch'el|_ mio cor con|voi _ _ _ _|sem- * *|per non sti-|a, et se|
 f3 f d4 | e4 ^f2 f2 | g2 g3 ccg- | g^f/e/ f2 g2 d2 | f2 f2 g4 | f8 | f4 e2 e2- | ee c2 z2 f2- | %32
w: li- ci- to|fi- a, et|se li- ci- ti fi-|* * * * a do-|po si cru-|de|tem- pre v'a-|* me- ra l'al-|
 ff d2 a3 a | a2 g2 f2 f2 | e4 d2 d2 | c3 c A2 B2 | A4 =B4- | B8 |] %38
w: * m'e sa- ra con|voi, sa- ra con|voi sem- pre,|con voi sem- *|* pre.|_|
V:3
 G4 A2 B2- | BB A2 c4 | =B2 B2 c2 d2- | dd G2 c2 d2 | z2 d3 d c2 | BB A2 c2 d2- | d2 c2 B2 A2 | %7
w: Se ben l'em-|* pia mia for-|te, fa che con-|* tra mia vo- glia,|fa che con-|* tra mia vo- glia,|_ con- tra mia|
 c4 B2 A2 | d4 d2 d2 | d2 c4 d2- | d2 c2 B2 A2 | G2 F2 A3 A | D2 A2 Bc d2- | dc d2 cB B2- | %14
w: vo- * glia,|don- na col|cor- po da|_ lun- g'is- t-|* * a, non|po- tra se _ _|_ _ non _ _ mor-|
 B2 A2 B4 | z2 F2 G2 A2 | z B c2 d2 _e2- | ed d2 d4- | d4 B4 | G2 d2 d2 e2 | d2 c2 B2 B2 | %21
w: * * te,|men- tre'ha- vro,|men- tre'ha- vro que|_ sta spo- glia,|_ far|ch'el mio cor con|voi sem- pre non|
 A4 A2 c2 | c2 B2 A4 | d6 =B2 | c2 d3 GGd- | d^c/B/ c2 d2 d2 | G2 e3 e e2 | d4 B2 B2- | %28
w: sti- a,, sem-|pre non st-|a, et|se li- ci- to fi-|* * * * a, et|se li- ci- to|fi- a do-|
 B2 A2 G2 G2 | d2 d3 c c2- | c2 B2 c2 c2- | cc A2 c2 d2- | d2 f3 e/d/ e2 | f2 d3 d c2 | %34
w: * po si cru-|de, tem- * *|* * pre v'a-|* me- ra l'al- m'e|_ sa _ _ ra|con voi sem- pre,|
 c2 c2 B2 A2- | A2 G2 ^F2 G2- | G2 ^F2 G4- | G8 |] %38
w: et sa- ra con|_ voi sem- *|* * pre.|_|
V:4
 z4 D,4 | E,2 F,3 F, E,2 | G,4 C,2 F,2 | G,2 G,2 F,2 B,,2 | B,4 F,4 | z2 F,4 D,2 | A,4 G,2 D,2 | %7
w: Se|ben l'em- pia mia|for- te, fa|che con- tra mia|vo- glia,|fa che|con- tra mia|
 C,4 D,4 | z2 D,2 D,2 D,2 | G,2 C,2 F,E,D,C, | B,,2 F,2 D,2 D,2 | B,,4 A,,2 A,2- | %12
w: vo- glia,|don- na col|cor- po da _ _ _|_ voi lun- g'is-|ti- a, non|
 A,A, D,2 G,3 G, | F,2 D,2 _E,4 | F,4 B,,4 | z4 z2 F,2 | G,2 A,2 B,2 _E,2 | B,3 A, G,4 | %18
w: _ po- tra se _|_ non mor-|* te,|men-|tre'ha- vro que- sta|spo- * *|
"^#" D,4 z2 B,2- | B,2 G,4 C,2 | D,2 F,2 B,,3 C, | D,2 D,2 A,,3 B,, | C,2 G,,2 D,4 | G,,4 G,4 | %24
w: glia, far|_ ch'el mio|cor con voi _|_ sem- pre _|_ non sti-|a, et|
 A,2 B,3 B, B,2 | A,4 D,4 | z8 | z2 D,2 G,4 | F,4 _E,4 | D,4 F,3 E, | D,4 C,4 | z2 F,3 F, D,2 | %32
w: se li- ci- to|fi- a,||do- po|si cru-|de tem- *|* pre|v'a- me- ra|
 B,4 A,4 | F,2 G,2 D,2 F,2 | C,4 D,2 D,2 | A,,2 C,2 D,2 G,,2 | D,4 G,,4- | G,,8 |] %38
w: l'al- me|sa- ra con voi|sem- pre, e|sa- ra con voi|sem- pre.|_|

